lg/zendesk-icon.svg

<svg viewBox="0 0 256 195" version="1.1" xmlns="http://www.w3.org/2000/svg" preserveAspectRatio="xMidYMid" height="1em" width="1em">
  <g>
    <path d="M118.249172,51.2326115 L118.249172,194.005605 L0,194.005605 L118.249172,51.2326115 Z M118.249172,2.84217094e-14 C118.249172,32.6440764 91.7686624,59.124586 59.124586,59.124586 C26.4805096,59.124586 0,32.6440764 0,2.84217094e-14 L118.249172,2.84217094e-14 Z M137.750828,194.005605 C137.750828,161.328917 164.198726,134.881019 196.875414,134.881019 C229.552102,134.881019 256,161.361529 256,194.005605 L137.750828,194.005605 Z M137.750828,142.740382 L137.750828,0 L256,0 L137.750828,142.740382 Z" fill="#03363D"/>
  </g>
</svg>

<svg viewBox="0 0 256 195" xmlns="http://www.w3.org/2000/svg" preserveAspectRatio="xMidYMid" height="1em" width="1em">
  <path d="M118.25 51.233v142.773H0L118.25 51.233Zm0-51.233c0 32.644-26.481 59.125-59.125 59.125S0 32.645 0 0h118.25Zm19.5 194.006c0-32.677 26.449-59.125 59.125-59.125 32.677 0 59.125 26.48 59.125 59.125H137.75Zm0-51.266V0H256L137.75 142.74Z" fill="#03363D"/>
</svg>
